.local/share/icons/Gruvbox-Plus-Dark/panel/16/xfce4-whiskermenu.svg

<svg xmlns="http://www.w3.org/2000/svg" width="16" height="16" version="1.1">
 <defs>
  <style id="current-color-scheme" type="text/css">
   .ColorScheme-Text { color:#ebdbb2; } .ColorScheme-Highlight { color:#458588; }
  </style>
 </defs>
 <path style="fill:currentColor" class="ColorScheme-Text" d="M 6.3041094,1.0003416 C 6.0733634,1.0052816 5.8914699,1.0749556 5.8275469,1.0745606 4.3504598,1.279795 5.2934145,2.8284256 5.9193438,4.7483885 5.9727837,5.2398578 4.4569826,5.0345811 4.1205157,4.5198728 2.9857307,1.7734928 2.6830084,2.0802045 2.3666094,2.0003416 2.0635414,1.9385356 1.0111922,2.4674665 1.0345781,3.5784666 c 0.004,0.3191549 0.2059804,2.1230077 0.2089844,2.5898438 -1.33037301,2.2596372 -1.87256511,3.4964486 -0.2050781,5.8087436 1.1948705,1.565703 4.0672336,2.055165 5.9511719,2.021485 4.0093167,0.0016 4.9590727,-2.177086 7.2561667,-3.955078 C 16.00033,8.6085896 14.200883,7.8012676 13.777073,7.5491696 10.141981,5.1980899 8.0855509,5.6876564 8.0365309,5.3147947 8.0108209,4.8838258 8.0268759,3.6857361 7.9642659,3.2601072 7.7175419,1.2794362 6.8117454,0.98848479 6.3041094,1.0003416 Z m 6.5960106,0 C 12.155486,1.1160076 11.790015,5.333496 12.122776,5.9710447 13.265053,5.2530714 13.046179,2.068399 12.90012,1.0003416 Z m 2.9375,0.9785156 c -2.357948,3.0996933 -1.799057,2.5203743 -2.388672,5.0078125 0.224955,0.3077999 3.275786,-4.640378 2.388672,-5.0078125 z M 7.9994219,7.0003416 c 0.5522847,0 1,0.4477153 1,1 0,0.5522847 -0.4477153,1 -1,1 -0.5522848,0 -1,-0.4477153 -1,-1 0,-0.5522847 0.4477152,-1 1,-1 z"/>
</svg>

<svg width="16" height="16" version="1.1" xmlns="http://www.w3.org/2000/svg">
  <defs>
    <style id="current-color-scheme" type="text/css">.ColorScheme-Text { color:#ebdbb2; } .ColorScheme-Highlight { color:#458588; } .ColorScheme-NeutralText { color:#fe8019; } .ColorScheme-PositiveText { color:#689d6a; } .ColorScheme-NegativeText { color:#fb4934; }</style>
  </defs>
  <path class="ColorScheme-Text" d="m6.304 1c-0.2307 0.00494-0.4126 0.07461-0.4766 0.07422-1.477 0.2052-0.5341 1.754 0.0918 3.674 0.05344 0.4915-1.462 0.2862-1.799-0.2285-1.135-2.746-1.438-2.44-1.754-2.52-0.3031-0.06181-1.355 0.4671-1.332 1.578 4e-3 0.3192 0.206 2.123 0.209 2.59-1.33 2.26-1.873 3.496-0.2051 5.809 1.195 1.566 4.067 2.055 5.951 2.021 4.009 0.0016 4.959-2.177 7.256-3.955 1.755-1.435-0.04494-2.242-0.4688-2.494-3.635-2.351-5.692-1.862-5.741-2.234-0.02571-0.431-0.009655-1.629-0.07226-2.055-0.2467-1.981-1.153-2.272-1.66-2.26zm6.596 0c-0.7446 0.1157-1.11 4.333-0.7773 4.971 1.142-0.718 0.9234-3.903 0.7773-4.971zm2.938 0.9785c-2.358 3.1-1.799 2.52-2.389 5.008 0.225 0.3078 3.276-4.64 2.389-5.008zm-7.838 5.021c0.5523 0 1 0.4477 1 1s-0.4477 1-1 1c-0.5523 0-1-0.4477-1-1s0.4477-1 1-1z" fill="currentColor"/>
</svg>
